Marwaita-Light/24x24/panel/gpmdp-tray-pause.svg

<svg xmlns="http://www.w3.org/2000/svg" width="24" height="24" version="1.1">
 <defs>
  <style id="current-color-scheme" type="text/css">
   .ColorScheme-Text { color:#444444; } .ColorScheme-Highlight { color:#4285f4; }
  </style>
 </defs>
 <path style="fill:currentColor" class="ColorScheme-Text" d="m 16.999853,15 0,6 2,0 0,-6 -2,0 z m 3,0 0,6 2,0 0,-6 -2,0 z M 5.8320312,4.0002592 c -0.2105737,0.00455 -0.393835,0.080379 -0.53125,0.2167969 C 5.1055812,4.4080561 5,4.7172567 5,5.1174467 L 5,18.877212 c 0,0.40016 0.1145814,0.709411 0.3007812,0.900391 0.28372,0.28193 0.7270619,0.307932 1.2324219,0.0078 l 3.5878909,-2.091785 7.763672,-4.523437 a 6,6 0 0 0 0.08594,-0.585937 6,6 0 0 1 -0.08594,0.585937 l 0.476562,-0.277344 c 0.85117,-0.49111 0.85117,-1.290815 0,-1.791015 L 17.882812,10.822525 C 17.335252,8.0731675 14.910574,6.0002592 12,6.0002592 c -0.65436,0 -1.28424,0.106345 -1.873047,0.3007812 L 6.5332031,4.2072905 C 6.2805131,4.0617754 6.0426051,3.9957111 5.8320312,4.0002592 Z m 3.6582032,2.5566406 c -0.063644,0.029542 -0.125087,0.062062 -0.1875,0.09375 0.062375,-0.031654 0.1238917,-0.064235 0.1875,-0.09375 z M 8.8828125,6.8850248 C 8.8115555,6.9287308 8.7411367,6.9732368 8.671875,7.0197904 8.741209,6.9732194 8.811478,6.9287414 8.8828125,6.8850248 Z M 12,7.0002592 c 2.773606,0 5,2.2266828 5,4.9999998 2.5e-5,0.18825 -0.03354,0.373712 -0.05469,0.560547 l -6.896482,4.015625 C 9.920564,16.520876 9.7873305,16.476582 9.6640625,16.410415 l -0.021484,-0.01172 -0.023437,-0.01172 c -0.018751,-0.0089 -0.015315,-0.0025 -0.033203,-0.0098 -0.011032,-0.0088 -0.039139,-0.03097 -0.1542969,-0.09961 l -0.00195,0 c -0.074437,-0.04408 -0.1486541,-0.09079 -0.2207031,-0.138672 l -0.00781,-0.0059 c -0.08764,-0.05976 -0.1665977,-0.116865 -0.2402344,-0.173828 l -0.00195,-0.002 C 8.8808109,15.896298 8.8048712,15.833417 8.7304688,15.767837 l -0.00195,0 C 8.6272666,15.67883 8.5576781,15.620659 8.5214844,15.586197 l -0.00195,-0.002 -0.00195,-0.002 -0.00977,-0.01172 -0.013672,-0.01367 C 8.3752019,15.439942 8.2628939,15.318063 8.15625,15.189712 8.118811,15.144672 8.067485,15.075625 8,14.984634 l -0.00195,-0.0039 -0.00195,-0.002 C 7.93228,14.894204 7.870802,14.807504 7.8125,14.719009 l -0.00195,-0.0039 C 7.7573246,14.633177 7.7081946,14.555155 7.6640625,14.478775 l -0.00391,-0.0078 c -0.050824,-0.09094 -0.09752,-0.181484 -0.1425744,-0.275404 l -0.00195,-0.0039 -0.00195,-0.0039 c -0.056889,-0.115998 -0.09754,-0.192712 -0.1152406,-0.234387 l 0,-0.0019 C 7.3283706,13.783429 7.2661863,13.612393 7.2148438,13.437759 l 0,-0.0039 0,-0.002 c -0.010058,-0.03362 -0.027876,-0.102872 -0.054688,-0.208984 -0.032985,-0.13066 -0.059706,-0.263586 -0.082031,-0.396484 -0.01586,-0.09472 -0.028763,-0.16606 -0.035156,-0.21875 l 0,-0.0039 0,-0.0059 c -0.026085,-0.19872 -0.040906,-0.397233 -0.042969,-0.597652 0.00183,-0.116593 0.0076,-0.233426 0.017578,-0.349609 l 0,-0.0078 0.00195,-0.0059 c 0.00742,-0.103539 0.018032,-0.211356 0.033203,-0.322266 l 0,-0.002 0.00195,0 c 0.00619,-0.04658 0.012026,-0.09424 0.019531,-0.140625 l 0,-0.0039 c 0.021451,-0.128216 0.047982,-0.253205 0.078125,-0.375 0.00638,-0.02425 0.012785,-0.04812 0.019531,-0.07227 l 0.00195,-0.0059 0.00195,-0.0059 c 0.037378,-0.139908 0.079066,-0.275718 0.1269666,-0.408063 l 0,-0.002 c 4.834e-4,-0.0013 0.00147,-0.0026 0.00195,-0.0039 0.00414,-0.01113 0.00945,-0.0221 0.013672,-0.0332 l 0,-0.0039 0.00195,-0.002 c 0.052474,-0.140631 0.1093602,-0.27776 0.1738342,-0.412108 l 0.00391,-0.0059 0,-0.0019 c 0.00567,-0.01144 0.011822,-0.0218 0.017578,-0.0332 l 0.00195,-0.0039 0.00195,-0.0039 c 0.063681,-0.128915 0.1337284,-0.256657 0.208987,-0.380854 0.01287,-0.02126 0.025876,-0.04143 0.039063,-0.0625 C 7.852885,9.215807 7.9397479,9.087118 8.0332031,8.965103 8.1351495,8.8321183 8.239586,8.709706 8.3476562,8.5940092 l 0.00391,-0.00391 0.00977,-0.00977 C 9.2762112,7.6076883 10.559374,7.0002592 12,7.0002592 Z M 8.3085938,7.2854154 C 8.2470208,7.3338294 8.1846134,7.3811744 8.125,7.4318998 8.184715,7.3810978 8.246914,7.3338898 8.3085938,7.2854154 Z M 17.96875,11.390884 C 17.98935,11.59112 18,11.794481 18,12.000259 18,11.794469 17.98898,11.591342 17.96875,11.390884 Z M 6,12.000259 A 6,6 0 0 0 6.021484,12.379165 6,6 0 0 1 6,12.000259 Z m 0.2558594,1.71875 a 6,6 0 0 0 0.1015625,0.289062 6,6 0 0 1 -0.1015625,-0.289062 z m 2.9355468,3.572266 A 6,6 0 0 0 9.6425781,17.506118 6,6 0 0 1 9.1914062,17.291275 Z M 15,12.000259 a 3,3 0 0 1 -3,3 3,3 0 0 1 -3.0000004,-3 3,3 0 0 1 3.0000004,-3 3,3 0 0 1 3,3 z"/>
</svg>

<svg xmlns="http://www.w3.org/2000/svg" width="24" height="24" version="1.1">
 <defs>
  <style id="current-color-scheme" type="text/css">
   .ColorScheme-Text { color:#444444; } .ColorScheme-Highlight { color:#4285f4; } .ColorScheme-NeutralText { color:#ff9800; } .ColorScheme-PositiveText { color:#4caf50; } .ColorScheme-NegativeText { color:#f44336; }
  </style>
 </defs>
 <path style="fill:currentColor" class="ColorScheme-Text" d="M 15,12 C 15,13.657 13.657,15 12,15 10.343,15 9,13.657 9,12 9,10.343 10.343,9 12,9 13.657,9 15,10.343 15,12 Z M 5.8322,4.0002 C 5.6216,4.0049 5.4383,4.0807 5.3009,4.2172 5.1057,4.4082 5,4.7174 5,5.1175 V 18.877 C 5,19.277 5.1147,19.587 5.3,19.778 5.5846,20.06 6.028,20.086 6.5334,19.785 L 18.361,12.893 C 19.213,12.402 19.213,11.602 18.361,11.102 L 17.883,10.823 C 17.335,8.0733 14.911,6.0002 12,6.0002 11.346,6.0002 10.716,6.1067 10.127,6.3002 L 6.5334,4.2074 C 6.2807,4.0619 6.0428,3.9958 5.8322,4.0002 Z M 12,7.0002 C 14.774,7.0002 17,9.227 17,12 17,12.189 16.967,12.374 16.945,12.561 L 10.049,16.576 C 9.3721,16.395 7,14.893 7,12 7,9.15 9.3995,7.0002 12,7.0002 Z M 17,15 V 21 H 19 V 15 Z M 20,15 V 21 H 22 V 15 Z"/>
</svg>
